Layouts/MINIMAL/dist/assets/images/socials/instagram.svg

<svg width="14" height="14" viewBox="0 0 14 14" fill="none" xmlns="http://www.w3.org/2000/svg">
<g clip-path="url(#clip0_1_171)">
<path d="M11.2313 6.99918C11.2313 9.33635 9.33471 11.2313 6.99835 11.2313C4.66118 11.2313 2.76706 9.33635 2.76706 6.99918C2.76706 6.72082 2.79424 6.44906 2.84612 6.18553H0V11.8111C0 13.0192 0.979176 13.9984 2.18729 13.9984H11.8111C13.0167 13.9984 13.9984 13.0192 13.9984 11.8111V6.18553H11.1522C11.2041 6.44906 11.2313 6.72082 11.2313 6.99918ZM11.8111 0H2.18729C0.979176 0 0 0.979176 0 2.18729V4.55741H3.54365C4.30953 3.47447 5.572 2.76706 6.99835 2.76706C8.42635 2.76706 9.68882 3.47365 10.4531 4.55741H13.9984V2.18729C13.9984 0.979176 13.0167 0 11.8111 0ZM12.8808 2.702C12.8808 2.91694 12.7038 3.09318 12.4896 3.09318H11.3169C11.1012 3.09318 10.9266 2.91776 10.9266 2.702V1.53012C10.9266 1.31518 11.1012 1.13894 11.3169 1.13894H12.4896C12.7038 1.13894 12.8808 1.31435 12.8808 1.53012V2.702ZM9.60235 6.99918C9.60235 5.56047 8.43706 4.39435 6.99835 4.39435C5.56129 4.39435 4.39435 5.56129 4.39435 6.99918C4.39435 8.43706 5.56129 9.60235 6.99835 9.60235C8.43706 9.60235 9.60235 8.43706 9.60235 6.99918Z" fill="black"/>
</g>
<defs>
<clipPath id="clip0_1_171">
<rect width="14" height="14" fill="white"/>
</clipPath>
</defs>
</svg>

<svg width="14" height="14" fill="none" xmlns="http://www.w3.org/2000/svg"><g clip-path="url(#a)"><path d="M11.231 7a4.232 4.232 0 1 1-8.385-.814H0v5.625c0 1.208.98 2.187 2.187 2.187h9.624a2.188 2.188 0 0 0 2.187-2.187V6.186h-2.846c.052.263.08.535.08.813Zm.58-7H2.187C.98 0 0 .98 0 2.187v2.37h3.544a4.225 4.225 0 0 1 3.454-1.79c1.428 0 2.69.707 3.455 1.79h3.545v-2.37A2.189 2.189 0 0 0 11.811 0Zm1.07 2.702a.393.393 0 0 1-.391.391h-1.173a.39.39 0 0 1-.39-.391V1.53a.39.39 0 0 1 .39-.391h1.173c.214 0 .39.175.39.391v1.172ZM9.602 6.999a2.604 2.604 0 1 0-5.208-.001 2.604 2.604 0 0 0 5.208.001Z" fill="#000"/></g><defs><clipPath id="a"><path fill="#fff" d="M0 0h14v14H0z"/></clipPath></defs></svg>
